<?xml version="1.0" encoding="UTF-8"?>
<map version="1.10" tiledversion="1.11.2" orientation="orthogonal" renderorder="right-down" width="40" height="30" tilewidth="16" tileheight="16" infinite="0" nextlayerid="8" nextobjectid="1">
 <tileset firstgid="1" source="C:/Users/Sri kumaran/Downloads/Tileset1.tsx"/>
 <layer id="2" name="ground" width="40" height="30">
  <data encoding="csv">
2263,2263,2263,2263,2263,2263,2263,2263,2263,2263,2263,2263,2263,2263,2263,2263,2263,2263,2263,2263,2263,2263,2263,2263,2263,2263,2263,2263,2263,2263,2263,2263,2263,2263,2263,2263,2263,2263,2263,2263,
2263,2263,2263,2263,2263,2263,2263,2263,2263,2263,2263,2263,2263,2263,2263,2263,2263,2263,2263,2263,2263,2263,2263,2263,2263,2263,2263,2263,2263,2263,2263,2263,2263,2263,2263,2263,2263,2263,2263,2263,
2263,2263,2263,2263,2263,2263,2263,2263,2263,2263,2263,2263,2263,2263,2263,2263,2263,2263,2263,2263,2263,2263,2263,2263,2263,2263,2263,2263,2263,2263,2263,2263,2263,2263,2263,2263,2263,2263,2263,2263,
2263,2263,2263,2263,2263,2263,2263,2263,2263,2263,2263,2263,2263,2263,2263,2263,2263,2263,2263,2263,2263,2263,2263,2263,2263,2263,2263,2263,2263,2263,2263,2263,2263,2263,2263,2263,2263,2263,2263,2263,
2263,2263,2263,2263,2263,2263,2263,2263,2263,2263,2263,2263,2263,2263,2263,2263,2263,2263,2263,2263,2263,2263,2263,2263,2263,2263,2263,2263,2263,2263,2263,2263,2263,2263,2263,2263,2263,2263,2263,2263,
2263,2263,2263,2263,2263,2263,2263,2263,2263,2263,2263,2263,2263,2263,2263,2263,2263,2263,2263,2263,2263,2263,2263,2263,2263,2263,2263,2263,2263,2263,2263,2263,2263,2263,2263,2263,2263,2263,2263,2263,
2263,2263,2263,2263,2263,2263,2263,2263,2263,2263,2263,2263,2263,2263,2263,2263,2263,2263,2263,2263,2263,2263,2263,2263,2263,2263,2263,2263,2263,2263,2263,2263,2263,2263,2263,2263,2263,2263,2263,2263,
2263,2263,2263,2263,2263,2263,2263,2263,2263,2263,2263,2263,2263,2263,2263,2263,2263,2263,2263,2263,2263,2263,2263,2263,2263,2263,2263,2263,2263,2263,2263,2263,2263,2263,2263,2263,2263,2263,2263,2263,
2263,2263,2263,2263,2263,2263,2263,2263,2263,2263,2263,2263,2263,2263,2263,2263,2263,2263,2263,2263,2263,2263,2263,2263,2263,2263,2263,2263,2263,2263,2263,2263,2263,2263,2263,2263,2263,2263,2263,2263,
2263,2263,2263,2263,2263,2263,2263,2263,2263,2263,2263,2263,2263,2263,2263,2263,2263,2263,2263,2263,2263,2263,2263,2263,2263,2263,2263,2263,2263,2263,2263,2263,2263,2263,2263,2263,2263,2263,2263,2263,
2263,2263,2263,2263,2263,2263,2263,2263,2263,2263,2263,2263,2263,2263,2263,2263,2263,2263,2263,2263,2263,2263,2263,2263,2263,2263,2263,2263,2263,2263,2263,2263,2263,2263,2263,2263,2263,2263,2263,2263,
2263,2263,2263,2263,2263,2263,2263,2263,2263,2263,2263,2263,2263,2263,2263,2263,2263,2263,2263,2263,2263,2263,2263,2263,2263,2263,2263,2263,2263,2263,2263,2263,2263,2263,2263,2263,2263,2263,2263,2263,
2263,2263,2263,2263,2263,2263,2263,2263,2263,2263,2263,2263,2263,2263,2263,2263,2263,2263,2263,2263,2263,2263,2263,2263,2263,2263,2263,2263,2263,2263,2263,2263,2263,2263,2263,2263,2263,2263,2263,2263,
2263,2263,2263,2263,2263,2263,2263,2263,2263,2263,2263,2263,2263,2263,2263,2263,2263,2263,2263,2263,2263,2263,2263,2263,2263,2263,2263,2263,2263,2263,2263,2263,2263,2263,2263,2263,2263,2263,2263,2263,
2263,2263,2263,2263,2263,2263,2263,2263,2263,2263,2263,2263,2263,2263,2263,2263,2263,2263,2263,2263,2263,2263,2263,2263,2263,2263,2263,2263,2263,2263,2263,2263,2263,2263,2263,2263,2263,2263,2263,2263,
2263,2263,2263,2263,2263,2263,2263,2263,2263,2263,2263,2263,2263,2263,2263,2263,2263,2263,2263,2263,2263,2263,2263,2263,2263,2263,2263,2263,2263,2263,2263,2263,2263,2263,2263,2263,2263,2263,2263,2263,
2263,2263,2263,2263,2263,2263,2263,2263,2263,2263,2263,2263,2263,2263,2263,2263,2263,2263,2263,2263,2263,2263,2263,2263,2263,2263,2263,2263,2263,2263,2263,2263,2263,2263,2263,2263,2263,2263,2263,2263,
2263,2263,2263,2263,2263,2263,2263,2263,2263,2263,2263,2263,2263,2263,2263,2263,2263,2263,2263,2263,2263,2263,2263,2263,2263,2263,2263,2263,2263,2263,2263,2263,2263,2263,2263,2263,2263,2263,2263,2263,
2263,2263,2263,2263,2263,2263,2263,2263,2263,2263,2263,2263,2263,2263,2263,2263,2263,2263,2263,2263,2263,2263,2263,2263,2263,2263,2263,2263,2263,2263,2263,2263,2263,2263,2263,2263,2263,2263,2263,2263,
2263,2263,2263,2263,2263,2263,2263,2263,2263,2263,2263,2263,2263,2263,2263,2263,2263,2263,2263,2263,2263,2263,2263,2263,2263,2263,2263,2263,2263,2263,2263,2263,2263,2263,2263,2263,2263,2263,2263,2263,
2263,2263,2263,2263,2263,2263,2263,2263,2263,2263,2263,2263,2263,2263,2263,2263,2263,2263,2263,2263,2263,2263,2263,2263,2263,2263,2263,2263,2263,2263,2263,2263,2263,2263,2263,2263,2263,2263,2263,2263,
2263,2263,2263,2263,2263,2263,2263,2263,2263,2263,2263,2263,2263,2263,2263,2263,2263,2263,2263,2263,2263,2263,2263,2263,2263,2263,2263,2263,2263,2263,2263,2263,2263,2263,2263,2263,2263,2263,2263,2263,
2263,2263,2263,2263,2263,2263,2263,2263,2263,2263,2263,2263,2263,2263,2263,2263,2263,2263,2263,2263,2263,2263,2263,2263,2263,2263,2263,2263,2263,2263,2263,2263,2263,2263,2263,2263,2263,2263,2263,2263,
2263,2263,2263,2263,2263,2263,2263,2263,2263,2263,2263,2263,2263,2263,2263,2263,2263,2263,2263,2263,2263,2263,2263,2263,2263,2263,2263,2263,2263,2263,2263,2263,2263,2263,2263,2263,2263,2263,2263,2263,
2263,2263,2263,2263,2263,2263,2263,2263,2263,2263,2263,2263,2263,2263,2263,2263,2263,2263,2263,2263,2263,2263,2263,2263,2263,2263,2263,2263,2263,2263,2263,2263,2263,2263,2263,2263,2263,2263,2263,2263,
2263,2263,2263,2263,2263,2263,2263,2263,2263,2263,2263,2263,2263,2263,2263,2263,2263,2263,2263,2263,2263,2263,2263,2263,2263,2263,2263,2263,2263,2263,2263,2263,2263,2263,2263,2263,2263,2263,2263,2263,
2263,2263,2263,2263,2263,2263,2263,2263,2263,2263,2263,2263,2263,2263,2263,2263,2263,2263,2263,2263,2263,2263,2263,2263,2263,2263,2263,2263,2263,2263,2263,2263,2263,2263,2263,2263,2263,2263,2263,2263,
2263,2263,2263,2263,2263,2263,2263,2263,2263,2263,2263,2263,2263,2263,2263,2263,2263,2263,2263,2263,2263,2263,2263,2263,2263,2263,2263,2263,2263,2263,2263,2263,2263,2263,2263,2263,2263,2263,2263,2263,
2263,2263,2263,2263,2263,2263,2263,2263,2263,2263,2263,2263,2263,2263,2263,2263,2263,2263,2263,2263,2263,2263,2263,2263,2263,2263,2263,2263,2263,2263,2263,2263,2263,2263,2263,2263,2263,2263,2263,2263,
2263,2263,2263,2263,2263,2263,2263,2263,2263,2263,2263,2263,2263,2263,2263,2263,2263,2263,2263,2263,2263,2263,2263,2263,2263,2263,2263,2263,2263,2263,2263,2263,2263,2263,2263,2263,2263,2263,2263,2263
</data>
 </layer>
 <layer id="6" name="path" width="40" height="30">
  <data encoding="csv">
0,0,0,0,0,0,0,0,0,0,0,0,0,0,0,0,0,0,0,0,0,0,0,0,0,0,0,0,0,0,0,0,0,0,0,0,0,0,0,0,
0,0,0,0,0,0,0,0,0,0,0,0,0,0,0,0,0,0,0,0,0,0,0,0,0,0,0,0,0,0,0,0,0,0,0,0,0,0,0,0,
0,0,0,0,0,0,0,0,0,0,0,0,0,0,0,0,0,0,0,0,0,0,0,0,0,0,0,0,0,0,0,0,0,0,0,0,0,0,0,0,
0,0,0,0,0,0,0,0,0,0,0,0,0,0,0,0,0,3758098626,3758098626,3758098626,3758098626,3758098626,3758098626,0,0,0,0,0,0,0,0,0,0,0,0,0,0,0,0,0,
0,0,0,0,2113,2114,2113,2114,2115,3758098626,3758098626,3758098626,3758098626,2113,2114,2113,2114,2114,2115,3758098626,2113,2114,2114,2114,2113,2114,2115,3758098626,3758098626,3758098626,2113,2114,2113,2114,2115,0,0,0,0,0,
0,0,0,0,2253,2254,2253,2254,2255,3758098626,3758098626,3758098626,3758098626,2253,2254,2253,2254,2254,2255,3758098626,2253,2254,2254,2254,2253,2254,2255,3758098626,3758098626,3758098626,2253,2254,2253,2254,2255,0,0,0,0,0,
0,0,0,0,2393,2394,2393,2394,2395,3758098626,3758098626,3758098626,3758098626,2393,2394,2393,2394,2394,2395,3758098626,2393,2394,2394,2394,2393,2394,2395,3758098626,3758098626,3758098626,2393,2394,2393,2394,2395,0,0,0,0,0,
0,0,0,0,2113,2114,2113,2114,2115,3758098626,3758098626,3758098626,3758098626,2113,2114,2113,2114,2114,2115,3758098626,2113,2114,2114,2114,2113,2114,2115,3758098626,3758098626,3758098626,2113,2114,2113,2114,2115,0,0,0,0,0,
0,0,0,0,2253,2254,2254,2254,2255,3758098626,3758098626,3758098626,3758098626,2253,2254,2254,2254,2254,2255,3758098626,2253,2254,2254,2254,2254,2254,2255,3758098626,3758098626,3758098626,2253,2254,2254,2254,2255,0,0,0,0,0,
0,0,0,0,2393,2394,2393,2394,2395,3758098626,3758098626,3758098626,3758098626,2393,2394,2393,2394,2394,2395,3758098626,2393,2394,2394,2394,2393,2394,2395,3758098626,3758098626,3758098626,2393,2394,2393,2394,2395,0,0,0,0,0,
2242,2242,2242,2242,2242,2242,2242,2242,2242,2242,2242,2242,2242,2242,2242,2242,2242,2242,2242,2242,2242,2242,2242,2242,2242,2242,2242,2242,2242,2242,2242,2242,2242,2242,2242,2242,2242,2242,2242,0,
2242,2242,2242,2242,2242,2242,2242,2242,2242,2242,2242,2242,2242,2242,2242,2242,2242,2242,2242,2242,2242,2242,2242,2242,2242,2242,2242,2242,2242,2242,2242,2242,2242,2242,2242,2242,2242,2242,2242,0,
3758098626,3758098626,0,0,0,0,0,2242,2242,2242,2242,2242,2242,2242,2242,0,0,0,0,0,0,0,0,0,0,0,2242,2242,2242,2242,2242,2242,2242,2242,2242,2242,2242,2242,2242,0,
3758098626,3758098626,0,0,0,0,0,2113,2114,2113,2114,2115,2115,2242,2242,0,0,0,0,0,0,0,0,0,0,0,2242,2242,2242,2242,2242,2242,2242,2242,2242,2242,2242,2242,2242,0,
3758098626,3758098626,0,0,0,0,0,2253,2254,2253,2254,2255,2255,2242,2242,0,0,0,0,0,0,0,0,0,0,0,2242,2242,2242,2242,2242,2242,2242,2242,2242,2242,2242,2242,2242,2242,
3758098626,3758098626,0,0,0,0,0,2393,2394,2393,2394,2395,2395,2242,2242,0,0,0,0,0,0,0,0,0,0,0,2242,2242,2242,2242,2242,2242,2242,2242,2242,2242,2242,2242,2242,2242,
3758098626,3758098626,0,0,0,0,0,2113,2114,2113,2114,2115,2115,2242,2242,0,0,0,0,0,0,0,0,0,0,0,2242,2242,2242,2242,2242,2242,2242,2242,2242,2242,2242,2242,2242,0,
3758098626,3758098626,0,0,0,0,0,2253,2254,2254,2254,2255,2255,2242,2242,0,0,0,0,0,0,0,0,0,0,0,2242,2242,2242,2242,2242,2242,2242,2242,2242,2242,2242,2242,2242,0,
3758098626,3758098626,0,0,0,0,0,2393,2394,2393,2394,2395,2395,2242,2242,0,0,0,0,0,0,0,0,0,0,0,2242,2242,2242,2242,2242,2242,2242,2242,2242,2242,2242,2242,2242,0,
3758098626,3758098626,0,0,0,0,0,2242,2242,2242,2242,2242,2242,2242,2242,0,0,0,0,0,0,0,0,0,0,0,2242,2242,2242,2242,2242,2242,2242,2242,2242,2242,2242,2242,2242,0,
3758098626,3758098626,0,0,0,0,0,2242,2242,2242,2242,2242,2242,2242,2242,2242,2242,2242,2242,2242,2242,2242,2242,2242,2242,2242,2242,2242,2242,2242,2242,2242,2242,2242,2242,2242,2242,2242,2242,0,
3758098626,3758098626,2114,2113,2114,2115,2115,2242,2242,2113,2113,2114,2113,2114,2115,2242,2113,2114,2113,2114,2113,2114,2115,2242,2242,2113,2113,2114,2113,2114,2115,2242,2113,2113,2114,2113,2114,2115,2242,0,
3758098626,3758098626,2254,2253,2254,2255,2255,2242,2242,2253,2253,2254,2253,2254,2255,2242,2253,2254,2253,2254,2253,2254,2255,2242,2242,2253,2253,2254,2253,2254,2255,2242,2253,2253,2254,2253,2254,2255,2242,0,
3758098626,3758098626,2394,2393,2394,2395,2395,2242,2242,2393,2393,2394,2393,2394,2395,2242,2393,2394,2393,2394,2393,2394,2395,2242,2242,2393,2393,2394,2393,2394,2395,2242,2393,2393,2394,2393,2394,2395,2242,0,
3758098626,3758098626,2114,2113,2114,2115,2115,2242,2242,2113,2113,2114,2113,2114,2115,2242,2113,2114,2113,2114,2113,2114,2115,2242,2242,2113,2113,2114,2113,2114,2115,2242,2113,2113,2114,2113,2114,2115,2242,0,
3758098626,3758098626,2254,2254,2254,2255,2255,2242,2242,2253,2253,2254,2254,2254,2255,2242,2253,2254,2253,2254,2254,2254,2255,2242,2242,2253,2253,2254,2254,2254,2255,2242,2253,2253,2254,2254,2254,2255,2242,0,
3758098626,3758098626,2394,2393,2394,2395,2395,2242,2242,2393,2393,2394,2393,2394,2395,2242,2393,2394,2393,2394,2393,2394,2395,2242,2242,2393,2393,2394,2393,2394,2395,2242,2393,2393,2394,2393,2394,2395,2242,0,
0,0,0,0,0,0,0,0,0,0,0,0,0,0,0,0,0,0,0,0,0,0,0,0,0,0,0,0,0,0,0,0,0,0,0,0,0,0,0,0,
0,0,0,0,0,0,0,0,0,0,0,0,0,0,0,0,0,0,0,0,0,0,0,0,0,0,0,0,0,0,0,0,0,0,0,0,0,0,0,0,
0,0,0,0,0,0,0,0,0,0,0,0,0,0,0,0,0,0,0,0,0,0,0,0,0,0,0,0,0,0,0,0,0,0,0,0,0,0,0,0
</data>
 </layer>
 <layer id="5" name="Obstacles" width="40" height="30">
  <data encoding="csv">
1318,1319,1320,1318,1319,1320,1318,1319,1320,1318,1319,1320,1318,1319,1320,1318,1319,1320,5192,5193,5194,1318,1319,1320,1318,1319,1320,1318,1319,1320,1318,1319,1320,1318,1319,1320,1318,1319,1320,0,
1458,1459,1460,1458,1459,1460,1458,1459,1460,1458,1459,1460,1458,1459,1460,1458,1459,1460,5332,5333,5334,1458,1459,1460,1458,1459,1460,1458,1459,1460,1458,1459,1460,1458,1459,1460,1458,1459,1460,0,
1598,1599,1600,1598,1599,1600,1598,1599,1600,1598,1599,1600,1598,1599,1600,1598,1599,1600,5472,5473,5474,1598,1599,1600,1598,1599,1600,1598,1599,1600,1598,1599,1600,1598,1599,1600,1598,1599,1600,0,
1738,1739,1740,1738,1739,1740,1738,1739,1740,1738,1739,1740,1738,1739,1740,1738,1739,1740,0,0,0,1738,1739,1740,1738,1739,1740,1738,1739,1740,1738,1739,1740,1738,1739,1740,1738,1739,1740,0,
1327,1328,1329,1330,0,0,0,0,0,0,0,0,0,0,0,0,0,0,1686,0,0,0,0,0,0,0,0,0,0,0,0,0,0,0,0,0,1327,1328,1329,1330,
1467,1468,1469,1470,0,0,0,0,0,0,0,0,0,0,0,0,0,0,1686,0,0,0,0,0,0,0,0,0,0,0,0,0,0,0,0,0,1467,1468,1469,1470,
1607,1608,1609,1610,0,0,0,2394,0,0,0,0,0,0,0,0,0,0,0,0,1686,0,0,0,0,0,0,0,0,0,0,0,0,0,0,0,1607,1608,1609,1610,
1747,1748,1749,1750,0,0,0,0,0,0,0,0,0,0,0,0,0,0,1686,0,1686,1686,0,0,0,0,0,0,0,0,0,0,0,0,0,0,1747,1748,1749,1750,
0,0,0,0,0,0,0,0,0,0,0,0,0,0,0,0,0,0,0,0,1686,0,0,0,0,0,0,0,0,0,0,0,0,0,0,0,0,0,0,0,
0,0,0,0,0,0,0,0,0,0,0,0,0,0,0,0,0,0,0,0,0,0,0,0,0,0,0,0,0,0,0,0,0,0,0,0,0,4499,4500,4501,
1696,1697,1698,1696,1697,1698,0,0,0,0,0,0,0,0,0,0,0,0,0,0,0,0,0,0,0,0,0,0,0,0,0,0,0,0,0,0,0,4639,4640,4641,
1836,1837,1838,1836,1837,1838,0,0,0,0,0,0,0,0,0,0,0,0,0,0,0,0,0,0,0,0,0,0,0,0,0,0,0,0,0,0,0,4639,4640,4641,
0,2953,2954,2955,2953,2954,2955,0,0,0,0,0,0,0,0,3539,3540,3540,3540,3540,3540,3540,3540,3540,3540,3541,0,0,0,0,0,0,0,0,0,0,0,4639,4640,4641,
0,3093,3094,3095,3093,3094,3095,0,0,0,0,0,0,0,0,3679,3542,3543,3544,3542,3543,3544,3542,3543,3544,3681,0,0,0,0,0,0,0,0,0,0,0,4779,4780,4781,
0,3233,3234,3235,3233,3234,3235,0,0,0,0,0,0,0,0,3679,3682,3683,3684,3682,3683,3684,3682,3683,3684,3681,0,0,0,0,0,0,0,0,0,0,0,0,0,0,
0,2953,2954,2955,2953,2954,2955,0,0,0,0,0,0,0,0,3679,3822,3823,3824,3822,3823,3824,3822,3823,3824,3681,0,0,0,0,0,0,0,0,0,0,0,0,0,0,
0,2953,2954,2955,3093,3094,3095,0,0,0,0,0,0,0,0,3679,3542,3543,3544,3542,3543,3544,3542,3543,3544,3681,0,0,0,0,0,0,0,0,0,0,0,4499,4500,4501,
0,3093,3094,3095,3233,3234,3235,0,0,0,0,0,0,0,0,3679,3682,3683,3684,3682,3683,3684,3682,3683,3684,3681,0,0,0,0,0,0,0,0,0,0,0,4639,4640,4641,
0,2953,2954,2955,2953,2954,2955,0,0,0,0,0,0,0,0,3679,3822,3823,3824,3822,3823,3824,3822,3823,3824,3681,0,0,0,0,0,0,0,0,0,0,0,4639,4640,4641,
0,3093,3094,3095,3093,3094,3095,0,0,0,0,0,0,0,0,3819,3820,3820,3820,3820,3820,3820,3820,3820,3820,3821,0,0,0,0,0,0,0,0,0,0,0,4639,4640,4641,
0,3233,3234,3235,3233,3234,3235,0,0,0,0,0,0,0,0,0,0,0,0,0,0,0,0,0,0,0,0,0,0,0,0,0,0,0,0,0,0,4639,4640,4641,
0,1696,0,0,1697,1698,0,0,0,0,0,0,0,0,0,0,0,0,0,0,0,0,0,0,0,0,0,0,0,0,0,0,0,0,0,0,0,4639,4640,4641,
0,0,0,0,1837,1838,0,0,0,0,0,0,0,0,0,0,0,0,0,0,0,0,0,0,0,0,0,0,0,0,0,0,0,0,0,0,0,4639,4640,4641,
0,0,0,0,0,0,0,0,0,0,0,0,0,0,0,0,0,0,0,0,0,0,0,0,0,0,0,0,0,0,0,0,0,0,0,0,0,4639,4640,4641,
0,0,0,0,0,0,0,0,0,0,0,0,0,0,0,0,0,0,0,0,0,0,0,0,0,0,0,0,0,0,0,0,0,0,0,0,0,4639,4640,4641,
0,0,0,0,0,0,0,0,0,0,0,0,0,0,0,0,0,0,0,0,0,0,0,0,0,0,0,0,0,0,0,0,0,0,0,0,0,4639,4640,4641,
0,0,0,0,0,0,0,0,0,0,0,0,0,0,0,0,0,0,0,0,0,0,0,0,0,0,0,0,0,0,0,0,0,0,0,0,0,4779,4780,4781,
3511,3511,3511,3511,3511,3511,3511,3511,3511,3511,3511,3511,3511,3511,3511,3511,3511,3511,3511,3511,3511,3511,3511,3511,3511,3511,3511,3511,3511,3511,3511,3511,3511,3511,3511,3511,3511,3511,3511,3511,
3651,3651,3651,3651,3651,3651,3651,3651,3651,3651,3651,3651,3651,3651,3651,3651,3651,3651,3651,3651,3651,3651,3651,3651,3651,3651,3651,3651,3651,3651,3651,3651,3651,3651,3651,3651,3651,3651,3651,3651,
3651,3651,3651,3651,3651,3651,3651,3651,3651,3651,3651,3651,3651,3651,3651,3651,3651,3651,3651,3651,3651,3651,3651,3651,3651,3651,3651,3651,3651,3651,3651,3651,3651,3651,3651,3651,3651,3651,3651,3651
</data>
 </layer>
 <layer id="7" name="forest" width="40" height="30">
  <data encoding="csv">
0,0,0,0,0,0,0,0,0,0,0,0,0,0,0,0,0,0,0,0,0,0,0,0,0,0,0,0,0,0,0,0,0,0,0,0,0,0,0,0,
0,0,0,0,0,0,0,0,0,1331,1332,1333,1334,1335,1336,0,0,0,0,0,0,0,0,1336,0,0,1331,1332,1333,1334,1335,1336,0,0,0,0,0,0,0,0,
1276,1277,1278,0,0,0,0,0,0,1471,1472,1473,1474,1475,1476,0,0,0,0,0,0,0,0,0,0,0,1471,1472,1473,1474,1475,1476,0,0,1327,1328,1329,1330,0,0,
1416,1417,1418,0,0,0,0,0,0,1611,1612,1613,1614,1615,1616,0,0,0,0,0,0,0,0,0,0,0,1611,1612,1613,1614,1615,1616,0,0,1467,1468,1469,1470,0,0,
1556,1557,1558,0,0,0,0,0,0,1751,1752,1753,1754,1755,1756,0,0,0,0,0,0,0,1755,1756,0,0,1751,1752,1753,1754,1755,1756,0,0,1607,1608,1609,1610,0,0,
0,0,0,0,0,0,0,0,0,1891,1892,1893,1894,1895,1896,0,0,0,0,0,0,0,0,1896,0,0,1891,1892,1893,1894,1895,1896,0,0,1747,1748,1749,1750,0,0,
1327,1328,1329,1330,0,0,0,0,0,2031,2032,2033,2034,2035,2036,0,0,0,0,0,0,0,0,2036,0,0,2031,2032,2033,2034,2035,2036,0,0,1327,1328,1329,1330,0,0,
1467,1468,1469,1470,0,0,0,0,0,2171,2172,2173,2174,2175,2176,0,0,0,0,0,0,0,0,2176,0,0,2171,2172,2173,2174,2175,2176,0,0,1467,1468,1469,1470,0,0,
1607,1608,1609,1610,0,0,0,0,0,2311,2312,2313,2314,2315,2316,0,0,0,0,0,0,0,0,2316,0,0,2311,2312,2313,2314,2315,2316,0,0,1607,1608,1609,1610,0,0,
1747,1748,1749,1750,0,0,0,0,0,0,0,0,0,0,0,0,0,0,0,0,0,0,0,0,0,0,0,0,0,0,0,0,0,0,1747,1748,1749,1750,0,0,
0,0,0,0,0,0,0,0,0,0,0,0,0,0,0,0,0,0,0,0,0,0,0,0,0,0,0,0,0,0,0,0,0,0,0,0,0,0,0,0,
1276,1277,1278,0,0,0,0,0,0,0,0,0,0,0,0,0,0,0,0,0,0,0,0,0,0,0,0,0,0,0,0,0,0,0,0,0,0,0,0,0,
1416,1417,1418,0,0,0,0,0,0,0,0,0,0,0,0,0,0,0,0,0,0,0,0,0,0,0,0,0,0,0,0,0,0,0,0,0,0,0,0,0,
1556,1557,1558,0,0,0,0,0,0,0,0,0,0,0,0,0,0,0,0,0,0,0,0,0,0,0,0,0,0,0,0,0,0,0,0,0,0,0,0,0,
1292,1293,1294,0,0,0,0,0,0,0,0,0,0,0,0,0,0,0,0,0,0,0,0,0,0,0,0,0,0,0,0,0,0,0,0,0,0,0,0,0,
1432,1433,1434,0,0,0,0,0,0,0,0,0,0,0,0,0,0,0,0,0,0,0,0,0,0,0,0,0,0,0,0,0,0,0,0,0,0,0,0,0,
1572,1573,1574,0,0,0,0,0,0,0,0,0,0,0,0,0,0,0,0,0,0,0,0,0,0,0,0,0,0,0,0,0,0,0,0,0,0,0,0,0,
1276,1277,1278,0,0,0,0,0,0,0,0,0,0,0,0,0,0,0,0,0,0,0,0,0,0,0,0,0,0,0,0,0,0,0,0,0,0,0,0,0,
1416,1417,1418,0,0,0,0,0,0,0,0,0,0,0,0,0,0,0,0,0,0,0,0,0,0,0,0,0,0,0,0,0,0,0,0,0,0,0,0,0,
1556,1557,1558,0,0,0,0,0,0,0,0,0,0,0,0,0,0,0,0,0,0,0,0,0,0,0,0,0,0,0,0,0,0,0,0,0,0,0,0,0,
1276,1277,1278,0,0,0,0,0,0,0,0,0,0,0,0,0,0,0,0,0,0,0,0,0,0,0,0,0,0,0,0,0,0,0,0,0,0,0,0,0,
1416,1417,1418,0,0,0,0,0,0,0,0,0,0,0,0,0,0,0,0,0,0,0,0,0,0,0,0,0,0,0,0,0,0,0,0,0,0,0,0,0,
1556,1557,1558,0,0,0,0,0,0,0,0,0,0,0,0,0,0,0,0,0,0,0,0,0,0,0,0,0,0,0,0,0,0,0,0,0,0,0,0,0,
1276,1277,1278,0,0,0,0,0,0,0,0,0,0,0,0,0,0,0,0,0,0,0,0,0,0,0,0,0,0,0,0,0,0,0,0,0,0,0,0,0,
1416,1417,1418,0,0,0,0,0,0,0,0,0,0,0,0,0,0,0,0,0,0,0,0,0,0,0,0,0,0,0,0,0,0,0,0,0,0,0,0,0,
1556,1557,1558,0,0,0,0,0,0,0,0,0,0,0,0,0,0,0,0,0,0,0,0,0,0,0,0,0,0,0,0,0,0,0,0,0,0,0,0,0,
0,0,0,0,0,0,0,0,0,0,0,0,0,0,0,0,0,0,0,0,0,0,0,0,0,0,0,0,0,0,0,0,0,0,0,0,0,0,0,0,
0,0,0,0,0,0,0,0,0,0,0,0,0,0,0,0,0,0,0,0,0,0,0,0,0,0,0,0,0,0,0,0,0,0,0,0,0,0,0,0,
0,0,0,0,0,0,0,0,0,0,0,0,0,0,0,0,0,0,0,0,0,0,0,0,0,0,0,0,0,0,0,0,0,0,0,0,0,0,0,0,
0,0,0,0,0,0,0,0,0,0,0,0,0,0,0,0,0,0,0,0,0,0,0,0,0,0,0,0,0,0,0,0,0,0,0,0,0,0,0,0
</data>
 </layer>
 <layer id="4" name="Houses" width="40" height="30">
  <data encoding="csv">
0,0,0,0,0,0,0,0,0,0,0,0,0,0,0,0,0,0,0,0,0,0,0,0,0,0,0,0,0,0,0,0,0,0,0,0,0,0,0,0,
0,0,0,0,0,0,0,0,0,0,0,0,0,0,0,0,0,0,0,0,0,0,0,0,0,0,0,0,0,0,0,0,0,0,0,0,0,0,0,0,
0,0,0,0,10814,10815,10816,10817,10818,10819,0,0,0,10814,10815,10816,10817,10818,10819,0,0,12073,12074,12075,12076,12077,12078,12079,0,12073,12074,12075,12076,12077,12078,12079,0,0,0,0,
0,0,0,0,10954,10955,10956,10957,10958,10959,0,0,0,10954,10955,10956,10957,10958,10959,0,0,12213,12214,12215,12216,12217,12218,12219,0,12213,12214,12215,12216,12217,12218,12219,0,0,0,0,
0,0,0,0,11094,11095,11096,11097,11098,11099,0,0,0,11094,11095,11096,11097,11098,11099,0,0,12353,12354,12355,12356,12357,12358,12359,0,12353,12354,12355,12356,12357,12358,12359,0,0,0,0,
0,0,0,0,11234,11235,11236,11237,11238,11239,0,0,0,11234,11235,11236,11237,11238,11239,0,0,12493,12494,12495,12496,12497,12498,12499,0,12493,12494,12495,12496,12497,12498,12499,0,0,0,0,
0,0,0,0,11374,11375,11376,11377,11378,11379,0,0,0,11374,11375,11376,11377,11378,11379,0,0,12633,12634,12635,12636,12637,12638,12639,0,12633,12634,12635,12636,12637,12638,12639,0,0,0,0,
0,0,0,0,11514,11515,11516,11517,11518,11519,0,0,0,11514,11515,11516,11517,11518,11519,0,0,0,12774,12775,12776,12777,12778,12779,0,12773,12774,12775,12776,12777,12778,12779,0,0,0,0,
0,0,0,0,11654,11655,11656,11657,11658,11659,0,0,0,11654,11655,11656,11657,11658,11659,0,0,0,12914,12915,12916,12917,12918,12919,0,12913,12914,12915,12916,12917,12918,12919,0,0,0,0,
0,0,0,0,11794,11795,11796,11797,11798,11799,0,0,0,11794,11795,11796,11797,11798,11799,0,0,0,0,13055,13056,13057,13058,13059,0,13053,13054,13055,13056,13057,13058,13059,0,0,0,0,
0,0,0,0,0,0,0,0,0,0,0,0,0,0,0,0,0,8743,0,0,0,0,0,0,0,0,0,0,0,0,0,0,0,0,0,0,0,0,0,0,
0,0,0,0,0,0,0,10711,10712,10713,10714,10715,10716,0,0,0,0,0,8805,0,0,8808,0,0,0,0,0,0,0,0,0,0,0,0,0,0,0,0,0,0,
0,0,0,0,0,0,0,10851,10852,10853,10854,10855,10856,0,0,0,0,0,8945,8946,0,8948,0,0,0,0,0,10711,10712,10713,10714,10715,10716,0,0,0,0,0,0,0,
0,0,0,0,0,0,0,10991,10992,10993,10994,10995,10996,0,0,0,0,0,9085,9086,0,9088,0,0,0,0,0,10851,10852,10853,10854,10855,10856,0,0,0,0,0,0,0,
0,0,0,0,0,0,0,11131,11132,11133,11134,11135,11136,0,0,0,0,0,0,9226,0,0,0,0,0,0,0,10991,10992,10993,10994,10995,10996,0,0,0,0,0,0,0,
0,0,0,0,0,0,0,11271,11272,11273,11274,11275,11276,0,0,0,0,9364,0,0,0,9368,0,0,0,0,0,11131,11132,11133,11134,11135,11136,0,0,0,0,0,0,0,
0,0,0,0,0,0,0,11411,11412,11413,11414,11415,11416,0,0,0,0,0,9365,0,0,0,0,0,0,0,0,11271,11272,11273,11274,11275,11276,0,0,0,0,0,0,0,
0,0,0,0,0,0,0,11551,11552,11553,11554,11555,11556,0,0,0,9303,0,0,0,0,0,0,0,0,0,0,11411,11412,11413,11414,11415,11416,0,0,0,0,0,0,0,
0,0,0,0,0,0,0,11691,11692,11693,11694,11695,11696,0,0,0,0,9364,9365,0,0,0,0,0,0,0,0,11551,11552,11553,11554,11555,11556,0,0,0,0,0,0,0,
0,0,0,0,0,0,0,11831,11832,11833,11834,11835,11836,0,0,0,0,9364,9365,9303,9367,9368,9303,9370,0,0,0,11691,11692,11693,11694,11695,11696,0,0,0,0,0,0,0,
0,0,0,0,0,0,0,0,0,0,0,0,0,0,0,0,0,12176,12176,12176,12176,12174,12175,0,0,0,0,11831,11832,11833,11834,11835,11836,0,0,0,0,0,0,0,
0,0,12300,12301,12302,12303,12304,0,0,0,12300,12301,12302,12303,12304,0,0,12310,12311,12312,12313,12314,12315,0,0,0,12300,12301,12302,12303,12304,0,0,12300,12301,12302,12303,12304,0,0,
0,0,12440,12441,12442,12443,12444,0,0,0,12440,12441,12442,12443,12444,0,0,12450,12451,12452,12453,12454,12455,0,0,0,12440,12441,12442,12443,12444,0,0,12440,12441,12442,12443,12444,0,0,
0,0,12580,12581,12582,12583,12584,0,0,0,12580,12581,12582,12583,12584,0,0,12590,12591,12592,12593,12594,12595,0,0,0,12580,12581,12582,12583,12584,0,0,12580,12581,12582,12583,12584,0,0,
0,0,12720,12721,12722,12723,12724,0,0,0,12720,12721,12722,12723,12724,0,0,12730,12731,12732,12733,12734,12735,0,0,0,12720,12721,12722,12723,12724,0,0,12720,12721,12722,12723,12724,0,0,
0,0,12860,12861,12862,12863,12864,0,0,0,12860,12861,12862,12863,12864,0,0,12870,12871,12872,12873,12874,12875,0,0,0,12860,12861,12862,12863,12864,0,0,12860,12861,12862,12863,12864,0,0,
0,0,13000,13001,13002,13003,13004,0,0,0,13000,13001,13002,13003,13004,0,0,13010,13011,13012,13013,13014,13015,0,0,0,13000,13001,13002,13003,13004,0,0,13000,13001,13002,13003,13004,0,0,
0,0,13140,13141,13142,13143,13144,0,0,0,13140,13141,13142,13143,13144,0,0,13150,13151,13152,13153,13154,13155,0,0,0,13140,13141,13142,13143,13144,0,0,13140,13141,13142,13143,13144,0,0,
0,0,0,0,0,0,0,0,0,0,0,0,0,0,0,0,0,13290,13291,13292,13293,13294,13295,0,0,0,0,0,0,0,0,0,0,0,0,0,0,0,0,0,
0,0,0,0,0,0,0,0,0,0,0,0,0,0,0,0,0,0,0,0,0,0,0,0,0,0,0,0,0,0,0,0,0,0,0,0,0,0,0,0
</data>
 </layer>
</map>
